x-pack/solutions/search/plugins/enterprise_search/public/assets/images/elser.svg

<svg width="40" height="44" viewBox="0 0 40 44" fill="none" xmlns="http://www.w3.org/2000/svg">
<path fill-rule="evenodd" clip-rule="evenodd" d="M11.9999 24.6476V25.3929C11.9999 25.9675 11.6332 26.4755 11.0879 26.6569L2.66664 29.4635V13.981C2.66664 13.5637 2.8653 13.165 3.19997 12.9143L7.46659 9.71437L5.86661 7.58105L1.59865 10.781C0.597327 11.533 0 12.729 0 13.981V29.9808C0 31.2328 0.597327 32.4288 1.59998 33.1808L5.86661 36.3808L7.46659 34.2475L4.16929 31.7741L11.9319 29.1875C13.5679 28.6422 14.6665 27.1169 14.6665 25.3929V24.6476H11.9999Z" fill="#00BFB3"/>
<path fill-rule="evenodd" clip-rule="evenodd" d="M38.401 10.7812L34.1344 7.58121L32.5344 9.71452L36.7997 12.9145C37.1344 13.1652 37.3344 13.5638 37.3344 13.9811V29.4637L28.9131 26.657C28.3678 26.4757 28.0011 25.9677 28.0011 25.3917V24.6477H25.3345V25.3917C25.3345 27.1157 26.4331 28.6423 28.0691 29.1877L35.8317 31.7743L32.5344 34.2476L34.1344 36.3809L38.401 33.181C39.4023 32.429 40.001 31.233 40.001 29.981V13.9811C40.001 12.7292 39.4023 11.5332 38.401 10.7812Z" fill="#00BFB3"/>
<path fill-rule="evenodd" clip-rule="evenodd" d="M13.3335 3.31445C12.9775 3.31445 12.6428 3.45311 12.3908 3.70511C12.1388 3.95711 12.0001 4.29177 12.0001 4.64777C12.0001 5.00377 12.1388 5.33843 12.3908 5.59043C12.8948 6.09442 13.7735 6.09442 14.2761 5.59043C14.5281 5.33843 14.6668 5.00377 14.6668 4.64777C14.6668 4.29177 14.5281 3.95711 14.2761 3.70511C14.0241 3.45311 13.6895 3.31445 13.3335 3.31445ZM13.3335 8.64773C12.2655 8.64773 11.2601 8.23173 10.5042 7.47574C9.74949 6.72108 9.3335 5.71576 9.3335 4.64777C9.3335 3.57978 9.74949 2.57446 10.5055 1.81846C12.0161 0.309146 14.6508 0.307812 16.1628 1.8198C16.9174 2.57446 17.3334 3.57978 17.3334 4.64777C17.3334 5.71576 16.9174 6.72108 16.1628 7.47574L16.1614 7.47707C15.4068 8.23173 14.4014 8.64773 13.3335 8.64773Z" fill="#535966"/>
<path fill-rule="evenodd" clip-rule="evenodd" d="M13.3335 37.9807C12.9775 37.9807 12.6428 38.1194 12.3908 38.3714C12.1388 38.6234 12.0001 38.9581 12.0001 39.3141C12.0001 39.6701 12.1388 40.0047 12.3908 40.2567C12.8948 40.7607 13.7735 40.7607 14.2761 40.2567C14.5281 40.0047 14.6668 39.6701 14.6668 39.3141C14.6668 38.9581 14.5281 38.6234 14.2761 38.3714C14.0241 38.1194 13.6895 37.9807 13.3335 37.9807ZM13.3335 43.314C12.2655 43.314 11.2601 42.898 10.5042 42.142C9.74949 41.3874 9.3335 40.382 9.3335 39.3141C9.3335 38.2461 9.74949 37.2407 10.5055 36.4848C12.0161 34.9754 14.6508 34.9741 16.1628 36.4861C16.9174 37.2407 17.3334 38.2461 17.3334 39.3141C17.3334 40.382 16.9174 41.3874 16.1628 42.142L16.1614 42.1434C15.4068 42.898 14.4014 43.314 13.3335 43.314Z" fill="#535966"/>
<path fill-rule="evenodd" clip-rule="evenodd" d="M13.3335 16.6477C12.9775 16.6477 12.6428 16.7863 12.3908 17.0383C12.1388 17.2903 12.0001 17.625 12.0001 17.981C12.0001 18.337 12.1388 18.6716 12.3908 18.9236C12.8948 19.4276 13.7735 19.4276 14.2761 18.9236C14.5281 18.6716 14.6668 18.337 14.6668 17.981C14.6668 17.625 14.5281 17.2903 14.2761 17.0383C14.0241 16.7863 13.6895 16.6477 13.3335 16.6477ZM13.3335 21.9809C12.2655 21.9809 11.2601 21.5649 10.5042 20.8089C9.74949 20.0543 9.3335 19.049 9.3335 17.981C9.3335 16.913 9.74949 15.9077 10.5055 15.1517C12.0161 13.6424 14.6508 13.641 16.1628 15.153C16.9174 15.9077 17.3334 16.913 17.3334 17.981C17.3334 19.049 16.9174 20.0543 16.1628 20.8089L16.1614 20.8103C15.4068 21.5649 14.4014 21.9809 13.3335 21.9809Z" fill="#535966"/>
<path fill-rule="evenodd" clip-rule="evenodd" d="M26.666 3.31445C26.31 3.31445 25.9753 3.45311 25.7233 3.70511C25.4713 3.95711 25.3327 4.29177 25.3327 4.64777C25.3327 5.00377 25.4713 5.33843 25.7233 5.59043C26.226 6.09442 27.106 6.09442 27.6086 5.59043C27.8606 5.33843 27.9993 5.00377 27.9993 4.64777C27.9993 4.29177 27.8606 3.95711 27.6086 3.70511C27.3566 3.45311 27.022 3.31445 26.666 3.31445ZM26.666 8.64773C25.598 8.64773 24.5927 8.23173 23.838 7.47707L23.8367 7.47574C23.082 6.72108 22.666 5.71576 22.666 4.64777C22.666 3.57978 23.082 2.57446 23.838 1.81846C25.3487 0.309146 27.9833 0.307812 29.4953 1.8198C30.2499 2.57446 30.6659 3.57978 30.6659 4.64777C30.6659 5.71576 30.2499 6.72108 29.4939 7.47707C28.7393 8.23173 27.734 8.64773 26.666 8.64773Z" fill="#535966"/>
<path fill-rule="evenodd" clip-rule="evenodd" d="M26.666 37.9807C26.31 37.9807 25.9753 38.1194 25.7233 38.3714C25.4713 38.6234 25.3327 38.9581 25.3327 39.3141C25.3327 39.6701 25.4713 40.0047 25.7233 40.2567C26.226 40.7607 27.106 40.7607 27.6086 40.2567C27.8606 40.0047 27.9993 39.6701 27.9993 39.3141C27.9993 38.9581 27.8606 38.6234 27.6086 38.3714C27.3566 38.1194 27.022 37.9807 26.666 37.9807ZM26.666 43.314C25.598 43.314 24.5927 42.898 23.838 42.1434L23.8367 42.142C23.082 41.3874 22.666 40.382 22.666 39.3141C22.666 38.2461 23.082 37.2407 23.838 36.4848C25.3487 34.9754 27.9833 34.9741 29.4953 36.4861C30.2499 37.2407 30.6659 38.2461 30.6659 39.3141C30.6659 40.382 30.2499 41.3874 29.4939 42.1434C28.7393 42.898 27.734 43.314 26.666 43.314Z" fill="#535966"/>
<path fill-rule="evenodd" clip-rule="evenodd" d="M26.666 16.6477C26.31 16.6477 25.9753 16.7863 25.7233 17.0383C25.4713 17.2903 25.3327 17.625 25.3327 17.981C25.3327 18.337 25.4713 18.6716 25.7233 18.9236C26.226 19.4276 27.106 19.4276 27.6086 18.9236C27.8606 18.6716 27.9993 18.337 27.9993 17.981C27.9993 17.625 27.8606 17.2903 27.6086 17.0383C27.3566 16.7863 27.022 16.6477 26.666 16.6477ZM26.666 21.9809C25.598 21.9809 24.5927 21.5649 23.838 20.8103L23.8367 20.8089C23.082 20.0543 22.666 19.049 22.666 17.981C22.666 16.913 23.082 15.9077 23.838 15.1517C25.3487 13.6424 27.9833 13.641 29.4953 15.153C30.2499 15.9077 30.6659 16.913 30.6659 17.981C30.6659 19.049 30.2499 20.0543 29.4939 20.8103C28.7393 21.5649 27.734 21.9809 26.666 21.9809Z" fill="#535966"/>
</svg>

<svg xmlns="http://www.w3.org/2000/svg" width="40" height="44" fill="none"><path fill="#00BFB3" fill-rule="evenodd" d="M12 24.648v.745a1.33 1.33 0 0 1-.912 1.264l-8.421 2.807V13.98c0-.417.198-.816.533-1.067l4.267-3.2-1.6-2.133-4.268 3.2A4.02 4.02 0 0 0 0 13.981v16c0 1.252.597 2.448 1.6 3.2l4.267 3.2 1.6-2.133-3.298-2.474 7.763-2.587a3.995 3.995 0 0 0 2.734-3.794v-.745zM38.401 10.781l-4.267-3.2-1.6 2.134 4.266 3.2c.334.25.534.649.534 1.066v15.483l-8.42-2.807A1.33 1.33 0 0 1 28 25.392v-.744h-2.667v.744a4 4 0 0 0 2.735 3.796l7.763 2.586-3.298 2.474 1.6 2.133 4.267-3.2a4.02 4.02 0 0 0 1.6-3.2v-16a4.02 4.02 0 0 0-1.6-3.2" clip-rule="evenodd"/><path fill="#535966" fill-rule="evenodd" d="M13.334 3.314c-.357 0-.691.14-.943.391-.252.252-.39.587-.39.943s.138.69.39.942c.504.504 1.383.504 1.885 0 .252-.252.39-.586.39-.942s-.138-.69-.39-.943a1.32 1.32 0 0 0-.942-.39m0 5.334a3.98 3.98 0 0 1-2.83-1.172 3.98 3.98 0 0 1-1.17-2.828c0-1.068.415-2.074 1.172-2.83 1.51-1.509 4.145-1.51 5.657.002a3.98 3.98 0 0 1 1.17 2.828 3.98 3.98 0 0 1-1.17 2.828l-.002.001a3.98 3.98 0 0 1-2.828 1.17M13.334 37.98c-.357 0-.691.14-.943.391-.252.252-.39.587-.39.943s.138.69.39.943c.504.504 1.383.504 1.885 0 .252-.252.39-.587.39-.943s-.138-.69-.39-.943a1.32 1.32 0 0 0-.942-.39m0 5.334a3.98 3.98 0 0 1-2.83-1.172 3.97 3.97 0 0 1-1.17-2.828c0-1.068.415-2.073 1.172-2.83 1.51-1.509 4.145-1.51 5.657.002a3.98 3.98 0 0 1 1.17 2.828 3.98 3.98 0 0 1-1.17 2.828l-.002.001a3.98 3.98 0 0 1-2.828 1.171M13.334 16.648c-.357 0-.691.138-.943.39s-.39.587-.39.943.138.69.39.943c.504.504 1.383.504 1.885 0 .252-.252.39-.587.39-.943s-.138-.69-.39-.943a1.32 1.32 0 0 0-.942-.39m0 5.333a3.98 3.98 0 0 1-2.83-1.172 3.97 3.97 0 0 1-1.17-2.828c0-1.068.415-2.073 1.172-2.83 1.51-1.509 4.145-1.51 5.657.002a3.98 3.98 0 0 1 1.17 2.828 3.98 3.98 0 0 1-1.17 2.828l-.002.001a3.98 3.98 0 0 1-2.828 1.17M26.666 3.314c-.356 0-.69.14-.943.391-.252.252-.39.587-.39.943s.138.69.39.942c.503.504 1.383.504 1.886 0 .252-.252.39-.586.39-.942s-.138-.69-.39-.943a1.32 1.32 0 0 0-.943-.39m0 5.334a3.98 3.98 0 0 1-2.828-1.17l-.001-.002a3.98 3.98 0 0 1-1.171-2.828c0-1.068.416-2.074 1.172-2.83 1.51-1.509 4.145-1.51 5.657.002a3.98 3.98 0 0 1 1.17 2.828 3.98 3.98 0 0 1-1.171 2.83 3.97 3.97 0 0 1-2.828 1.17M26.666 37.98c-.356 0-.69.14-.943.391-.252.252-.39.587-.39.943s.138.69.39.943c.503.504 1.383.504 1.886 0 .252-.252.39-.587.39-.943s-.138-.69-.39-.943a1.32 1.32 0 0 0-.943-.39m0 5.334a3.98 3.98 0 0 1-2.828-1.17l-.001-.002a3.97 3.97 0 0 1-1.171-2.828c0-1.068.416-2.073 1.172-2.83 1.51-1.509 4.145-1.51 5.657.002a3.98 3.98 0 0 1 1.17 2.828 3.98 3.98 0 0 1-1.171 2.83 3.98 3.98 0 0 1-2.828 1.17M26.666 16.648c-.356 0-.69.138-.943.39-.252.252-.39.587-.39.943s.138.69.39.943c.503.504 1.383.504 1.886 0 .252-.252.39-.587.39-.943s-.138-.69-.39-.943a1.32 1.32 0 0 0-.943-.39m0 5.333a3.98 3.98 0 0 1-2.828-1.17l-.001-.002a3.97 3.97 0 0 1-1.171-2.828c0-1.068.416-2.073 1.172-2.83 1.51-1.509 4.145-1.51 5.657.002a3.98 3.98 0 0 1 1.17 2.828 3.98 3.98 0 0 1-1.171 2.83 3.98 3.98 0 0 1-2.828 1.17" clip-rule="evenodd"/></svg>
